svg/s/OM.svg

<svg width="16" height="12" viewBox="0 0 16 12" fill="none" xmlns="http://www.w3.org/2000/svg">
<g clip-path="url(#clip0_270_55110)">
<rect width="16" height="12" fill="white"/>
<path fill-rule="evenodd" clip-rule="evenodd" d="M0 0V12H16V0H0Z" fill="#F50101"/>
<mask id="mask0_270_55110" style="mask-type:luminance" maskUnits="userSpaceOnUse" x="0" y="0" width="16" height="12">
<path fill-rule="evenodd" clip-rule="evenodd" d="M0 0V12H16V0H0Z" fill="white"/>
</mask>
<g mask="url(#mask0_270_55110)">
<path fill-rule="evenodd" clip-rule="evenodd" d="M0 0V4H16V0H0Z" fill="#F7FCFF"/>
<path fill-rule="evenodd" clip-rule="evenodd" d="M0 8V12H16V8H0Z" fill="#5EAA22"/>
<rect width="6" height="12" fill="#F50101"/>
<path fill-rule="evenodd" clip-rule="evenodd" d="M5.38522 1.01642C5.38995 0.970809 5.33161 0.953261 5.30835 0.992777C5.12691 1.301 4.67212 2.03422 3.92349 2.99306V2.53422C3.85208 2.45661 3.62443 2.24782 3.62443 2.24782V1.78966L4.03627 1.41697L3.47064 0.999992L2.87446 1.41697L3.32509 1.78966V2.24782C3.32509 2.46752 3.05189 2.53422 3.05189 2.53422L3.00187 2.93837C2.3054 2.03397 1.87117 1.3288 1.68729 1.01362C1.66356 0.97294 1.60387 0.9921 1.61088 1.03867C1.66638 1.40725 1.83238 2.22505 2.29092 3.09822H2.16794V3.08196C2.16794 3.05794 2.14848 3.03848 2.12446 3.03848H1.07012C1.0461 3.03848 1.02664 3.05794 1.02664 3.08196V3.745C1.02664 3.76901 1.0461 3.78848 1.07012 3.78848H2.12446C2.14848 3.78848 2.16794 3.76901 2.16794 3.745V3.3969H2.30072C2.34576 3.50075 2.44919 3.57394 2.57014 3.57607C2.65464 3.70643 2.74627 3.83644 2.84564 3.96482C2.61706 3.94221 1.10638 3.8136 1.10638 4.36319C1.10638 4.69124 1.47382 4.86488 1.93464 4.95464C1.47065 5.37481 1.03269 5.77015 0.831185 5.95195C0.798491 5.98145 0.824048 6.03254 0.866789 6.02195C1.22663 5.93277 2.16986 5.65763 3.06777 5.04507L3.09574 5.04511C3.34862 5.04511 3.5245 4.93541 3.64675 4.78693C4.56001 5.53238 5.59321 5.87667 6.04171 6.00003C6.08824 6.01283 6.1134 5.9526 6.07375 5.92508C5.70947 5.67222 4.88802 5.06368 4.04808 4.17977L4.07012 4.15397C4.24148 3.95174 4.3908 3.74372 4.52091 3.53515C4.57535 3.50332 4.6187 3.45489 4.64385 3.3969H4.77664L4.77664 3.745C4.77664 3.76901 4.7961 3.78848 4.82012 3.78848H5.87446C5.89848 3.78848 5.91794 3.76901 5.91794 3.745V3.08196C5.91794 3.05794 5.89848 3.03848 5.87446 3.03848H4.82012C4.80898 3.03848 4.79883 3.04266 4.79113 3.04955C5.2223 2.1768 5.34888 1.36699 5.38522 1.01642ZM4.77664 3.09822L4.77664 3.08196L4.77678 3.0784L4.7668 3.09822H4.77664ZM2.82012 3.28041C2.82012 3.41403 2.71062 3.52235 2.57555 3.52235C2.44048 3.52235 2.33098 3.41403 2.33098 3.28041C2.33098 3.1468 2.44048 3.03848 2.57555 3.03848C2.71062 3.03848 2.82012 3.1468 2.82012 3.28041ZM4.12446 3.28041C4.12446 3.41403 4.23396 3.52235 4.36903 3.52235C4.5041 3.52235 4.61359 3.41403 4.61359 3.28041C4.61359 3.1468 4.5041 3.03848 4.36903 3.03848C4.23396 3.03848 4.12446 3.1468 4.12446 3.28041Z" fill="#F7FCFF"/>
</g>
</g>
<defs>
<clipPath id="clip0_270_55110">
<rect width="16" height="12" fill="white"/>
</clipPath>
</defs>
</svg>

<svg width="16" height="12" fill="none" xmlns="http://www.w3.org/2000/svg">
  <mask id="a" maskUnits="userSpaceOnUse" x="0" y="0" width="16" height="12">
    <path fill="#fff" d="M0 0h16v12H0z"/>
  </mask>
  <g mask="url(#a)">
    <path fill-rule="evenodd" clip-rule="evenodd" d="M0 0v12h16V0H0z" fill="#F50101"/>
    <mask id="b" maskUnits="userSpaceOnUse" x="0" y="0" width="16" height="12">
      <path fill-rule="evenodd" clip-rule="evenodd" d="M0 0v12h16V0H0z" fill="#fff"/>
    </mask>
    <g mask="url(#b)">
      <path fill-rule="evenodd" clip-rule="evenodd" d="M0 0v4h16V0H0z" fill="#F7FCFF"/>
      <path fill-rule="evenodd" clip-rule="evenodd" d="M0 8v4h16V8H0z" fill="#5EAA22"/>
      <path fill="#F50101" d="M0 0h6v12H0z"/>
      <path fill-rule="evenodd" clip-rule="evenodd" d="M5.385 1.016C5.39.971 5.332.953 5.308.993a19.138 19.138 0 01-1.385 2v-.459c-.07-.077-.299-.286-.299-.286V1.79l.412-.373L3.471 1l-.597.417.451.373v.458c0 .22-.273.286-.273.286l-.05.404a18.687 18.687 0 01-1.315-1.924c-.023-.041-.083-.022-.076.025a6.71 6.71 0 00.68 2.06h-.123v-.017a.043.043 0 00-.044-.044H1.07a.043.043 0 00-.043.044v.663c0 .024.02.043.043.043h1.054a.044.044 0 00.044-.043v-.348H2.3a.3.3 0 00.27.18c.084.13.175.26.275.388-.229-.023-1.74-.151-1.74.398 0 .328.368.502.829.592L.83 5.952c-.033.03-.007.08.036.07a7.128 7.128 0 002.2-.977h.029a.68.68 0 00.55-.258c.914.745 1.947 1.09 2.396 1.213.046.013.071-.047.032-.075A13.587 13.587 0 014.048 4.18l.022-.026c.171-.202.32-.41.45-.619a.298.298 0 00.124-.138h.133v.348c0 .024.02.043.043.043h1.054a.044.044 0 00.044-.043v-.663a.043.043 0 00-.044-.044H4.82a.043.043 0 00-.029.012 6.178 6.178 0 00.594-2.034zm-.608 2.082v-.02l-.01.02h.01zM2.82 3.28c0 .134-.11.242-.244.242a.243.243 0 01-.245-.242.244.244 0 01.489 0zm1.304 0c0 .134.11.242.245.242a.243.243 0 00.245-.242.243.243 0 00-.245-.242.243.243 0 00-.245.242z" fill="#F7FCFF"/>
    </g>
  </g>
</svg>
